svg/icons/chrome.svg

<svg xmlns="http://www.w3.org/2000/svg" width="512" height="512" viewBox="0 0 512 512"><path d="M99.744 121.842c95.763-111.391 273.325-89.403 339.705 40.713-46.727.017-119.898-.014-159.528 0-28.743.01-47.301-.643-67.398 9.931-23.627 12.43-41.454 35.471-47.677 62.534l-65.102-113.178zm87.722 134.15c0 37.752 30.713 68.465 68.465 68.465 37.751 0 68.464-30.713 68.464-68.465 0-37.751-30.713-68.465-68.464-68.465-37.752 0-68.465 30.714-68.465 68.465zm95.036 89.616c-38.428 11.414-83.398-1.244-108.031-43.74-18.803-32.438-68.483-118.938-91.064-158.27-79.086 121.147-10.925 286.239 132.65 314.417l66.445-112.407zm37.027-158.081c32.006 29.752 38.979 77.928 17.299 115.283-16.334 28.144-68.466 116.083-93.732 158.666 147.927 9.114 255.764-135.786 207.055-273.949h-130.622z"/></svg>

<?xml version="1.0" encoding="utf-8"?>

<!-- License Agreement at http://iconmonstr.com/license/ -->

<!DOCTYPE svg PUBLIC "-//W3C//DTD SVG 1.1//EN" "http://www.w3.org/Graphics/SVG/1.1/DTD/svg11.dtd">
<svg version="1.1" xmlns="http://www.w3.org/2000/svg" xmlns:xlink="http://www.w3.org/1999/xlink" x="0px" y="0px"
	 width="512px" height="512px" viewBox="0 0 512 512" enable-background="new 0 0 512 512" xml:space="preserve">
<path id="chrome-icon" d="M99.744,121.842c95.763-111.391,273.325-89.403,339.705,40.713c-46.727,0.017-119.898-0.014-159.528,0
	c-28.743,0.01-47.301-0.643-67.398,9.931c-23.627,12.43-41.454,35.471-47.677,62.534L99.744,121.842z M187.466,255.992
	c0,37.752,30.713,68.465,68.465,68.465c37.751,0,68.464-30.713,68.464-68.465c0-37.751-30.713-68.465-68.464-68.465
	C218.179,187.527,187.466,218.241,187.466,255.992z M282.502,345.608c-38.428,11.414-83.398-1.244-108.031-43.74
	c-18.803-32.438-68.483-118.938-91.064-158.27C4.321,264.745,72.482,429.837,216.057,458.015L282.502,345.608z M319.529,187.527
	c32.006,29.752,38.979,77.928,17.299,115.283c-16.334,28.144-68.466,116.083-93.732,158.666
	c147.927,9.114,255.764-135.786,207.055-273.949H319.529z"/>
</svg>
